X:378
T:Friends and Neighbours
C:Jill Lawrence, 1973.  Chords by Colin Hume, 2022.
L:1/8
M:2/4
R:Reel
%%MIDI gchord fzczfzcz
S:Colin Hume's website,  colinhume.com  - chords can also be printed below the stave.
Q:1/4=112
K:C
P:A1
"C"GG2A | "/"Gc2c | "C7"cc dc | "F"A3A | "C"GG2A | "/"GE DC | "Am"AG GE | "G7"D3E |
P:A2
"C"GG2A | "/"Gc2c | "C"ed "F"cA | "C"G3G | "Dm"dd2e | "G"fB BB | "G7"d4 | "C"c4 |
P:B
|: "F"A>A AB | "Dm"dc BA | "C"G>G Gc | "/"e3c |\
"Dm"dd de | "G"fB BB |1 "D7"d>c cA | "G"G3 G :|2 "G7"d4 | "C"c4 |]

